exports/global-land-spared-as-a-result-of-cereal-yield-improvements_v1_850x600.svg

<svg xmlns="http://www.w3.org/2000/svg" version="1.1" style="background-color:#fff;-webkit-font-smoothing:antialiased" width="850" height="600" font-family="'Helvetica Neue',Helvetica,Arial,sans-serif" font-size="18" text-rendering="optimizeLegibility"><g class="ChartTab"><g class="HeaderView"><g opacity=".8" transform="matrix(.31 0 0 .31 770 15)"><a xmlns:xlink="http://www.w3.org/1999/xlink" xlink:href="https://ourworldindata.org" target="_blank"><g><path fill="#1B2543" d="M0 0h211.2v130.1H0z"/><path fill="#E63912" d="M0 112.2h211.2v17.9H0z"/><g><path fill="none" d="M1.2 12.3h210.2v99.2H1.2z"/><path fill="#FFF" d="M37.8 32.2c0 12.7-7.7 19.4-17.1 19.4-9.7 0-16.6-7.5-16.6-18.7 0-11.7 7.3-19.3 17.1-19.3 10.1.1 16.6 7.7 16.6 18.6zm-28.6.6c0 7.9 4.3 14.9 11.8 14.9 7.5 0 11.8-6.9 11.8-15.3 0-7.3-3.8-14.9-11.8-14.9-7.9 0-11.8 7.3-11.8 15.3zM62.7 43.8c0 2.7.1 5.1.2 7.2h-4.3l-.3-4.3h-.1c-1.3 2.1-4 4.9-8.8 4.9-4.2 0-9.1-2.3-9.1-11.6V24.6h4.8v14.6c0 5 1.5 8.4 5.9 8.4 3.2 0 5.5-2.2 6.3-4.4.3-.7.4-1.6.4-2.5V24.6h4.8v19.2zM67.3 32.8c0-3.1-.1-5.8-.2-8.2h4.2l.2 5.2h.2c1.2-3.5 4.1-5.8 7.3-5.8.5 0 .9.1 1.4.2v4.5c-.5-.1-1-.2-1.6-.2-3.4 0-5.8 2.6-6.5 6.2-.1.7-.2 1.4-.2 2.2V51h-4.8V32.8zM95.4 51L86 14.2h5l4.4 18.6c1.1 4.6 2.1 9.2 2.7 12.7h.1c.6-3.7 1.8-8 3-12.8l4.9-18.5h5l4.5 18.7c1 4.4 2 8.7 2.6 12.6h.1c.8-4 1.8-8.1 3-12.7l4.9-18.5h4.9L120.6 51h-5L111 31.9c-1.1-4.7-1.9-8.3-2.4-12h-.1c-.7 3.7-1.5 7.3-2.8 12L100.4 51h-5zM154.9 37.6c0 9.8-6.8 14-13.2 14-7.2 0-12.7-5.2-12.7-13.6 0-8.8 5.8-14 13.1-14 7.7 0 12.8 5.5 12.8 13.6zm-21 .3c0 5.8 3.3 10.1 8 10.1 4.6 0 8-4.3 8-10.3 0-4.5-2.2-10.1-7.9-10.1s-8.1 5.2-8.1 10.3zM158.2 32.8c0-3.1-.1-5.8-.2-8.2h4.2l.2 5.2h.2c1.2-3.5 4.1-5.8 7.3-5.8.5 0 .9.1 1.4.2v4.5c-.5-.1-1-.2-1.6-.2-3.4 0-5.8 2.6-6.5 6.2-.1.7-.2 1.4-.2 2.2V51h-4.8V32.8zM173.5 12.3h4.8V51h-4.8V12.3zM206.5 12.3v31.9c0 2.3.1 5 .2 6.8h-4.3l-.2-4.6h-.2c-1.5 2.9-4.7 5.2-9 5.2-6.4 0-11.3-5.4-11.3-13.4-.1-8.8 5.4-14.2 11.9-14.2 4 0 6.8 1.9 8 4h.1V12.3h4.8zm-4.8 23.1c0-.6-.1-1.4-.2-2a7 7 0 00-6.9-5.6c-5 0-7.9 4.4-7.9 10.2 0 5.3 2.6 9.8 7.8 9.8 3.2 0 6.2-2.1 7.1-5.7.2-.7.2-1.3.2-2.1v-4.6zM42.8 64c.1 1.6-1.1 2.9-3.1 2.9-1.7 0-2.9-1.3-2.9-2.9 0-1.7 1.3-3 3-3 1.9 0 3 1.3 3 3zm-5.4 33.8V71.4h4.8v26.4h-4.8zM47.5 78.6c0-2.7-.1-5-.2-7.1h4.3l.3 4.4h.1c1.3-2.5 4.4-5 8.8-5 3.7 0 9.4 2.2 9.4 11.2v15.8h-4.8V82.6c0-4.3-1.6-7.8-6.1-7.8-3.2 0-5.6 2.2-6.5 4.9-.2.6-.3 1.4-.3 2.2v15.9h-4.8V78.6zM84 61.6c2.9-.4 6.3-.8 10.1-.8 6.8 0 11.7 1.6 14.9 4.6 3.3 3 5.2 7.3 5.2 13.2 0 6-1.9 10.9-5.3 14.3-3.4 3.4-9.1 5.3-16.3 5.3-3.4 0-6.2-.2-8.6-.4V61.6zm4.8 32.5c1.2.2 3 .3 4.8.3 10.2 0 15.7-5.7 15.7-15.6.1-8.7-4.9-14.2-14.9-14.2-2.5 0-4.3.2-5.6.5v29zM132.1 97.8l-.4-3.3h-.2a9.79 9.79 0 01-8.1 3.9c-5.4 0-8.1-3.8-8.1-7.6 0-6.4 5.7-9.9 15.9-9.8v-.5c0-2.2-.6-6.1-6-6.1-2.5 0-5 .8-6.9 2l-1.1-3.2c2.2-1.4 5.4-2.3 8.7-2.3 8.1 0 10.1 5.5 10.1 10.8v9.9c0 2.3.1 4.5.4 6.3h-4.3zm-.7-13.4c-5.3-.1-11.2.8-11.2 5.9 0 3.1 2.1 4.6 4.5 4.6 3.4 0 5.6-2.2 6.4-4.4.2-.5.3-1 .3-1.5v-4.6zM146.6 63.9v7.6h6.9v3.7h-6.9v14.2c0 3.3.9 5.1 3.6 5.1 1.3 0 2.2-.2 2.8-.3l.2 3.6c-.9.4-2.4.7-4.3.7-2.2 0-4-.7-5.2-2-1.4-1.4-1.9-3.8-1.9-6.9V75.1h-4.1v-3.7h4.1v-6.3l4.8-1.2zM171.4 97.8l-.4-3.3h-.2a9.79 9.79 0 01-8.1 3.9c-5.4 0-8.1-3.8-8.1-7.6 0-6.4 5.7-9.9 15.9-9.8v-.5c0-2.2-.6-6.1-6-6.1-2.5 0-5 .8-6.9 2l-1.1-3.2c2.2-1.4 5.4-2.3 8.7-2.3 8.1 0 10.1 5.5 10.1 10.8v9.9c0 2.3.1 4.5.4 6.3h-4.3zm-.7-13.4c-5.3-.1-11.2.8-11.2 5.9 0 3.1 2.1 4.6 4.5 4.6 3.4 0 5.6-2.2 6.4-4.4.2-.5.3-1 .3-1.5v-4.6z"/></g></g></a></g><a href="https://ourworldindata.org/grapher/global-land-spared-as-a-result-of-cereal-yield-improvements" target="_blank"><text font-size="27" x="15" y="36.6" fill="#555"><tspan x="15" y="36.6">Global land spared as a result of cereal yield improvements</tspan></text></a><text font-size="14.4" x="15" y="55.5" fill="#666"><tspan x="15" y="55.52">Global area of land spared from agricultural production as a result of improvements in cereal yield, measured in</tspan><tspan x="15" y="71.36">hectares. This has been calculated as the area of land which would have been necessary to maintain global cereal</tspan><tspan x="15" y="87.2">production at actual output rates, assuming average cereal yields had remained constant since 1961.</tspan></text></g><g class="StackedArea"><defs><clipPath id="a"><path d="M97.6 0h820v894.2h-820z"/></clipPath></defs><g class="AxisBoxView"><g class="HorizontalAxis" fill="#666" text-anchor="middle" font-size="16.2"><text x="97.6" y="556.5">1961</text><text x="196.8" y="556.5">1970</text><text x="306.9" y="556.5">1980</text><text x="417.1" y="556.5">1990</text><text x="527.3" y="556.5">2000</text><text x="637.4" y="556.5">2010</text><text x="681.5" y="556.5">2014</text></g><g class="VerticalAxis" fill="#666" dominant-baseline="middle" text-anchor="end" font-size="16.2"><text x="92.6" y="535.3">0</text><text x="92.6" y="427.9">500 million</text><text x="92.6" y="320.5">1 billion</text><text x="92.6" y="213.1">1.5 billion</text></g><g class="AxisGridLines"><path stroke="#ccc" d="M97.6 535.3h583.91"/><path stroke="#ddd" stroke-dasharray="3,2" d="M97.6 427.9h583.91M97.6 320.5h583.91M97.6 213.1h583.91"/></g><g class="AxisGridLines" stroke="#ddd" stroke-dasharray="3,2"><path d="M196.8 535.3V109.4M306.9 535.3V109.4M417.1 535.3V109.4M527.3 535.3V109.4M637.4 535.3V109.4"/></g></g><g clip-path="url(#a)"><g class="HeightedLegend clickable"><g class="legendMark"><path fill="#34983f" d="M686.51 243.65h10v2.5h-10z"/><text font-size="14.4" x="701.5" y="241.5" fill="#333"><tspan x="701.51" y="241.47">Land spared by yield</tspan><tspan x="701.51" y="257.31">gains (hectares)</tspan></text></g><g class="legendMark"><path fill="#3360a9" d="M686.51 456.55h10v2.5h-10z"/><text font-size="14.4" x="701.5" y="454.4" fill="#333"><tspan x="701.51" y="454.37">Land under cereal</tspan><tspan x="701.51" y="470.21">production</tspan></text></g></g><g class="Areas"><path d="M97.6 401.1l11-.5 11-1.6 11-1.6 11.1.2 11-1 11-2.6 11-1 11-.3 11.1 1.6 11-2.7 11 2.4 11-3.6h11l11-2 11.1-2.4 11 1.2 11 .5 11 1.3 11-2.2 11-2.4 11.1 2.2 11 1.4 11-2.6 11-1.5 11 .3 11 4 11.1-1.1 11-2.8 11 .7 11 .3 11-1.3 11 2.3 11.1.3 11 1.7 11-3.2h11l11 4.5 11.1 2.2 11-.6h11l11 2.5 11-2.3 11-1.3 11.1-3 11 2.4 11-3.9 11-3.6 11 2.9 11 1.3 11.1-2.6 11-.2 11-2.7 11-.4.01 155H97.6" fill="#3360a9" fill-opacity=".7" class="World_1-area"/><path d="M97.6 401.1l11-6.8 11-2.5 11-7.8 11.1.4 11-12 11-7 11-5.5 11-1.5 11.1-3.3 11-16.2 11 6.2 11-14.9 11 4.6 11-5 11.1-15.7 11 1.1 11-19 11 6.8 11-1.9 11-12.5 11.1-9.1 11 10 11-24.2 11-5.2 11-1.9 11 9.4 11.1 6.6 11-21.7 11-12.1 11 9.2 11-12.6 11 10.4 11.1-7.5 11 8.3 11-25 11-4.8 11 1.5 11.1.7 11 3.5 11-7.8 11 11.6 11-8.3 11-28.6 11.1 1.1 11 5.7 11-18.2 11-27.3 11 5.9 11 4.1 11.1-17.5 11 4 11-31.1 11-8.3v270.9l-11 .4-11 2.7-11 .2-11.1 2.6-11-1.3-11-2.9-11 3.6-11 3.9-11-2.4-11.1 3-11 1.3-11 2.3-11-2.5h-11l-11 .6-11.1-2.2-11-4.5h-11l-11 3.2-11-1.7-11.1-.3-11-2.3-11 1.3-11-.3-11-.7-11 2.8-11.1 1.1-11-4-11-.3-11 1.5-11 2.6-11-1.4-11.1-2.2-11 2.4-11 2.2-11-1.3-11-.5-11-1.2-11.1 2.4-11 2h-11l-11 3.6-11-2.4-11 2.7-11.1-1.6-11 .3-11 1-11 2.6-11 1-11.1-.2-11 1.6-11 1.6-11 .5" fill="#34983f" fill-opacity=".7" class="World_0-area"/><path stroke-linecap="round" d="M97.6 401.1l11-.5 11-1.6 11-1.6 11.1.2 11-1 11-2.6 11-1 11-.3 11.1 1.6 11-2.7 11 2.4 11-3.6h11l11-2 11.1-2.4 11 1.2 11 .5 11 1.3 11-2.2 11-2.4 11.1 2.2 11 1.4 11-2.6 11-1.5 11 .3 11 4 11.1-1.1 11-2.8 11 .7 11 .3 11-1.3 11 2.3 11.1.3 11 1.7 11-3.2h11l11 4.5 11.1 2.2 11-.6h11l11 2.5 11-2.3 11-1.3 11.1-3 11 2.4 11-3.9 11-3.6 11 2.9 11 1.3 11.1-2.6 11-.2 11-2.7 11-.4" stroke="#2B508D" stroke-opacity=".7" stroke-width=".5" fill="none" class="World_1-border"/><path stroke-linecap="round" d="M97.6 401.1l11-6.8 11-2.5 11-7.8 11.1.4 11-12 11-7 11-5.5 11-1.5 11.1-3.3 11-16.2 11 6.2 11-14.9 11 4.6 11-5 11.1-15.7 11 1.1 11-19 11 6.8 11-1.9 11-12.5 11.1-9.1 11 10 11-24.2 11-5.2 11-1.9 11 9.4 11.1 6.6 11-21.7 11-12.1 11 9.2 11-12.6 11 10.4 11.1-7.5 11 8.3 11-25 11-4.8 11 1.5 11.1.7 11 3.5 11-7.8 11 11.6 11-8.3 11-28.6 11.1 1.1 11 5.7 11-18.2 11-27.3 11 5.9 11 4.1 11.1-17.5 11 4 11-31.1 11-8.3" stroke="#2C7F35" stroke-opacity=".7" stroke-width=".5" fill="none" class="World_0-border"/></g></g></g><g class="SourcesFooter" fill="#777"><g class="clickable" fill="#777"><text font-size="12.6" x="15" y="581.6"><tspan x="15" y="581.58">Source: Land sparing from cereal yields - World Bank (2017)</tspan></text></g><text font-size="12.6" x="454.6" y="581.6"><tspan x="454.61" y="581.58"><a target="_blank" href="https://ourworldindata.org/yields-and-land-use-in-agriculture/" fill="#777">OurWorldInData.org/yields-and-land-use-in-agriculture/</a> • <a href="http://creativecommons.org/licenses/by-sa/4.0/deed.en_US" target="_blank" fill="#777">CC BY-SA</a></tspan></text></g></g></svg>

<svg xmlns="http://www.w3.org/2000/svg" version="1.1" style="font-family: 'Helvetica Neue', Helvetica, Arial, sans-serif; font-size: 18px; background-color: white; text-rendering: optimizeLegibility; -webkit-font-smoothing: antialiased;" width="850" height="600"><g class="ChartTab"><g class="HeaderView"><g opacity="0.8" transform="translate(770, 15) scale(0.31)"><a xmlns:xlink="http://www.w3.org/1999/xlink" xlink:href="https://ourworldindata.org" target="_blank"><g><rect x="0" y="0" fill="#1B2543" width="211.2" height="130.1"/><rect x="0" y="112.2" fill="#E63912" width="211.2" height="17.9"/><g><rect x="1.2" y="12.3" fill="none" width="210.2" height="99.2"/><path fill="#FFFFFF" d="M37.8,32.2c0,12.7-7.7,19.4-17.1,19.4c-9.7,0-16.6-7.5-16.6-18.7c0-11.7,7.3-19.3,17.1-19.3 C31.3,13.7,37.8,21.3,37.8,32.2z M9.2,32.8c0,7.9,4.3,14.9,11.8,14.9c7.5,0,11.8-6.9,11.8-15.3c0-7.3-3.8-14.9-11.8-14.9 C13.1,17.5,9.2,24.8,9.2,32.8z"/><path fill="#FFFFFF" d="M62.7,43.8c0,2.7,0.1,5.1,0.2,7.2h-4.3l-0.3-4.3h-0.1c-1.3,2.1-4,4.9-8.8,4.9c-4.2,0-9.1-2.3-9.1-11.6 V24.6h4.8v14.6c0,5,1.5,8.4,5.9,8.4c3.2,0,5.5-2.2,6.3-4.4c0.3-0.7,0.4-1.6,0.4-2.5V24.6h4.8V43.8z"/><path fill="#FFFFFF" d="M67.3,32.8c0-3.1-0.1-5.8-0.2-8.2h4.2l0.2,5.2h0.2c1.2-3.5,4.1-5.8,7.3-5.8c0.5,0,0.9,0.1,1.4,0.2v4.5 c-0.5-0.1-1-0.2-1.6-0.2c-3.4,0-5.8,2.6-6.5,6.2c-0.1,0.7-0.2,1.4-0.2,2.2V51h-4.8V32.8z"/><path fill="#FFFFFF" d="M95.4,51l-9.4-36.8h5l4.4,18.6c1.1,4.6,2.1,9.2,2.7,12.7h0.1c0.6-3.7,1.8-8,3-12.8l4.9-18.5h5l4.5,18.7 c1,4.4,2,8.7,2.6,12.6h0.1c0.8-4,1.8-8.1,3-12.7l4.9-18.5h4.9L120.6,51h-5L111,31.9c-1.1-4.7-1.9-8.3-2.4-12h-0.1 c-0.7,3.7-1.5,7.3-2.8,12L100.4,51H95.4z"/><path fill="#FFFFFF" d="M154.9,37.6c0,9.8-6.8,14-13.2,14c-7.2,0-12.7-5.2-12.7-13.6c0-8.8,5.8-14,13.1-14 C149.8,24,154.9,29.5,154.9,37.6z M133.9,37.9c0,5.8,3.3,10.1,8,10.1c4.6,0,8-4.3,8-10.3c0-4.5-2.2-10.1-7.9-10.1 C136.3,27.6,133.9,32.8,133.9,37.9z"/><path fill="#FFFFFF" d="M158.2,32.8c0-3.1-0.1-5.8-0.2-8.2h4.2l0.2,5.2h0.2c1.2-3.5,4.1-5.8,7.3-5.8c0.5,0,0.9,0.1,1.4,0.2v4.5 c-0.5-0.1-1-0.2-1.6-0.2c-3.4,0-5.8,2.6-6.5,6.2c-0.1,0.7-0.2,1.4-0.2,2.2V51h-4.8V32.8z"/><path fill="#FFFFFF" d="M173.5,12.3h4.8V51h-4.8V12.3z"/><path fill="#FFFFFF" d="M206.5,12.3v31.9c0,2.3,0.1,5,0.2,6.8h-4.3l-0.2-4.6H202c-1.5,2.9-4.7,5.2-9,5.2 c-6.4,0-11.3-5.4-11.3-13.4c-0.1-8.8,5.4-14.2,11.9-14.2c4,0,6.8,1.9,8,4h0.1V12.3H206.5z M201.7,35.4c0-0.6-0.1-1.4-0.2-2 c-0.7-3.1-3.3-5.6-6.9-5.6c-5,0-7.9,4.4-7.9,10.2c0,5.3,2.6,9.8,7.8,9.8c3.2,0,6.2-2.1,7.1-5.7c0.2-0.7,0.2-1.3,0.2-2.1V35.4z"/><path fill="#FFFFFF" d="M42.8,64c0.1,1.6-1.1,2.9-3.1,2.9c-1.7,0-2.9-1.3-2.9-2.9c0-1.7,1.3-3,3-3C41.7,61,42.8,62.3,42.8,64z M37.4,97.8V71.4h4.8v26.4H37.4z"/><path fill="#FFFFFF" d="M47.5,78.6c0-2.7-0.1-5-0.2-7.1h4.3l0.3,4.4h0.1c1.3-2.5,4.4-5,8.8-5c3.7,0,9.4,2.2,9.4,11.2v15.8h-4.8 V82.6c0-4.3-1.6-7.8-6.1-7.8c-3.2,0-5.6,2.2-6.5,4.9c-0.2,0.6-0.3,1.4-0.3,2.2v15.9h-4.8V78.6z"/><path fill="#FFFFFF" d="M84,61.6c2.9-0.4,6.3-0.8,10.1-0.8c6.8,0,11.7,1.6,14.9,4.6c3.3,3,5.2,7.3,5.2,13.2c0,6-1.9,10.9-5.3,14.3 c-3.4,3.4-9.1,5.3-16.3,5.3c-3.4,0-6.2-0.2-8.6-0.4V61.6z M88.8,94.1c1.2,0.2,3,0.3,4.8,0.3c10.2,0,15.7-5.7,15.7-15.6 c0.1-8.7-4.9-14.2-14.9-14.2c-2.5,0-4.3,0.2-5.6,0.5V94.1z"/><path fill="#FFFFFF" d="M132.1,97.8l-0.4-3.3h-0.2c-1.5,2.1-4.3,3.9-8.1,3.9c-5.4,0-8.1-3.8-8.1-7.6c0-6.4,5.7-9.9,15.9-9.8v-0.5 c0-2.2-0.6-6.1-6-6.1c-2.5,0-5,0.8-6.9,2l-1.1-3.2c2.2-1.4,5.4-2.3,8.7-2.3c8.1,0,10.1,5.5,10.1,10.8v9.9c0,2.3,0.1,4.5,0.4,6.3 H132.1z M131.4,84.4c-5.3-0.1-11.2,0.8-11.2,5.9c0,3.1,2.1,4.6,4.5,4.6c3.4,0,5.6-2.2,6.4-4.4c0.2-0.5,0.3-1,0.3-1.5V84.4z"/><path fill="#FFFFFF" d="M146.6,63.9v7.6h6.9v3.7h-6.9v14.2c0,3.3,0.9,5.1,3.6,5.1c1.3,0,2.2-0.2,2.8-0.3l0.2,3.6 c-0.9,0.4-2.4,0.7-4.3,0.7c-2.2,0-4-0.7-5.2-2c-1.4-1.4-1.9-3.8-1.9-6.9V75.1h-4.1v-3.7h4.1v-6.3L146.6,63.9z"/><path fill="#FFFFFF" d="M171.4,97.8l-0.4-3.3h-0.2c-1.5,2.1-4.3,3.9-8.1,3.9c-5.4,0-8.1-3.8-8.1-7.6c0-6.4,5.7-9.9,15.9-9.8v-0.5 c0-2.2-0.6-6.1-6-6.1c-2.5,0-5,0.8-6.9,2l-1.1-3.2c2.2-1.4,5.4-2.3,8.7-2.3c8.1,0,10.1,5.5,10.1,10.8v9.9c0,2.3,0.1,4.5,0.4,6.3 H171.4z M170.7,84.4c-5.3-0.1-11.2,0.8-11.2,5.9c0,3.1,2.1,4.6,4.5,4.6c3.4,0,5.6-2.2,6.4-4.4c0.2-0.5,0.3-1,0.3-1.5V84.4z"/></g></g></a></g><a href="https://ourworldindata.org/grapher/global-land-spared-as-a-result-of-cereal-yield-improvements" target="_blank"><text font-size="27.00" x="15.0" y="36.6" fill="#555"><tspan x="15" y="36.6">Global land spared as a result of cereal yield improvements</tspan></text></a><text font-size="14.40" x="15.0" y="55.5" fill="#666"><tspan x="15" y="55.519999999999996">Global area of land spared from agricultural production as a result of improvements in cereal yield, measured in</tspan><tspan x="15" y="71.36">hectares. This has been calculated as the area of land which would have been necessary to maintain global cereal</tspan><tspan x="15" y="87.2">production at actual output rates, assuming average cereal yields had remained constant since 1961.</tspan></text></g><g class="StackedArea"><defs><clipPath id="boundsClip-252"><rect x="97.598" y="0" width="820" height="894.2"></rect></clipPath></defs><g class="AxisBoxView"><g class="HorizontalAxis"><text x="97.6" y="556.5" fill="#666" text-anchor="middle" font-size="16.2">1961</text><text x="196.8" y="556.5" fill="#666" text-anchor="middle" font-size="16.2">1970</text><text x="306.9" y="556.5" fill="#666" text-anchor="middle" font-size="16.2">1980</text><text x="417.1" y="556.5" fill="#666" text-anchor="middle" font-size="16.2">1990</text><text x="527.3" y="556.5" fill="#666" text-anchor="middle" font-size="16.2">2000</text><text x="637.4" y="556.5" fill="#666" text-anchor="middle" font-size="16.2">2010</text><text x="681.5" y="556.5" fill="#666" text-anchor="middle" font-size="16.2">2014</text></g><g class="VerticalAxis"><text x="92.60" y="535.3" fill="#666" dominant-baseline="middle" text-anchor="end" font-size="16.2">0</text><text x="92.60" y="427.9" fill="#666" dominant-baseline="middle" text-anchor="end" font-size="16.2">500 million</text><text x="92.60" y="320.5" fill="#666" dominant-baseline="middle" text-anchor="end" font-size="16.2">1 billion</text><text x="92.60" y="213.1" fill="#666" dominant-baseline="middle" text-anchor="end" font-size="16.2">1.5 billion</text></g><g class="AxisGridLines"><line x1="97.60" y1="535.3" x2="681.51" y2="535.3" stroke="#ccc"></line><line x1="97.60" y1="427.9" x2="681.51" y2="427.9" stroke="#ddd" stroke-dasharray="3,2"></line><line x1="97.60" y1="320.5" x2="681.51" y2="320.5" stroke="#ddd" stroke-dasharray="3,2"></line><line x1="97.60" y1="213.1" x2="681.51" y2="213.1" stroke="#ddd" stroke-dasharray="3,2"></line></g><g class="AxisGridLines"><line x1="196.8" y1="535.30" x2="196.8" y2="109.40" stroke="#ddd" stroke-dasharray="3,2"></line><line x1="306.9" y1="535.30" x2="306.9" y2="109.40" stroke="#ddd" stroke-dasharray="3,2"></line><line x1="417.1" y1="535.30" x2="417.1" y2="109.40" stroke="#ddd" stroke-dasharray="3,2"></line><line x1="527.3" y1="535.30" x2="527.3" y2="109.40" stroke="#ddd" stroke-dasharray="3,2"></line><line x1="637.4" y1="535.30" x2="637.4" y2="109.40" stroke="#ddd" stroke-dasharray="3,2"></line></g></g><g clip-path="url(#boundsClip-252)"><g class="HeightedLegend clickable"><g class="legendMark"><rect x="686.512" y="229.95000000000002" width="148.48800000000003" height="29.900000000000002" fill="#fff" opacity="0"></rect><rect x="686.512" y="243.65" width="10" height="2.5" fill="#34983f"></rect><text font-size="14.40" x="701.5" y="241.5" fill="#333"><tspan x="701.512" y="241.47000000000003">Land spared by yield</tspan><tspan x="701.512" y="257.31">gains (hectares)</tspan></text></g><g class="legendMark"><rect x="686.512" y="442.85" width="131.64000000000001" height="29.900000000000002" fill="#fff" opacity="0"></rect><rect x="686.512" y="456.55" width="10" height="2.5" fill="#3360a9"></rect><text font-size="14.40" x="701.5" y="454.4" fill="#333"><tspan x="701.512" y="454.37">Land under cereal</tspan><tspan x="701.512" y="470.21">production</tspan></text></g></g><g class="Areas"><rect x="97.598" y="109.4" width="583.914" height="425.9000000000001" opacity="0" fill="rgba(255,255,255,0)"></rect><path stroke-linecap="round" d="M97.6 401.1L108.6 400.6L119.6 399L130.6 397.4L141.7 397.6L152.7 396.6L163.7 394L174.7 393L185.7 392.7L196.8 394.3L207.8 391.6L218.8 394L229.8 390.4L240.8 390.4L251.8 388.4L262.9 386L273.9 387.2L284.9 387.7L295.9 389L306.9 386.8L317.9 384.4L329 386.6L340 388L351 385.4L362 383.9L373 384.2L384 388.2L395.1 387.1L406.1 384.3L417.1 385L428.1 385.3L439.1 384L450.1 386.3L461.2 386.6L472.2 388.3L483.2 385.1L494.2 385.1L505.2 389.6L516.3 391.8L527.3 391.2L538.3 391.2L549.3 393.7L560.3 391.4L571.3 390.1L582.4 387.1L593.4 389.5L604.4 385.6L615.4 382L626.4 384.9L637.4 386.2L648.5 383.6L659.5 383.4L670.5 380.7L681.5 380.3L681.512 535.3000000000001L97.598 535.3000000000001" fill="#3360a9" fill-opacity="0.7" class="World_1-area"></path><path stroke-linecap="round" d="M97.6 401.1L108.6 394.3L119.6 391.8L130.6 384L141.7 384.4L152.7 372.4L163.7 365.4L174.7 359.9L185.7 358.4L196.8 355.1L207.8 338.9L218.8 345.1L229.8 330.2L240.8 334.8L251.8 329.8L262.9 314.1L273.9 315.2L284.9 296.2L295.9 303L306.9 301.1L317.9 288.6L329 279.5L340 289.5L351 265.3L362 260.1L373 258.2L384 267.6L395.1 274.2L406.1 252.5L417.1 240.4L428.1 249.6L439.1 237L450.1 247.4L461.2 239.9L472.2 248.2L483.2 223.2L494.2 218.4L505.2 219.9L516.3 220.6L527.3 224.1L538.3 216.3L549.3 227.9L560.3 219.6L571.3 191L582.4 192.1L593.4 197.8L604.4 179.6L615.4 152.3L626.4 158.2L637.4 162.3L648.5 144.8L659.5 148.8L670.5 117.7L681.5 109.4L681.5 380.3L670.5 380.7L659.5 383.4L648.5 383.6L637.4 386.2L626.4 384.9L615.4 382L604.4 385.6L593.4 389.5L582.4 387.1L571.3 390.1L560.3 391.4L549.3 393.7L538.3 391.2L527.3 391.2L516.3 391.8L505.2 389.6L494.2 385.1L483.2 385.1L472.2 388.3L461.2 386.6L450.1 386.3L439.1 384L428.1 385.3L417.1 385L406.1 384.3L395.1 387.1L384 388.2L373 384.2L362 383.9L351 385.4L340 388L329 386.6L317.9 384.4L306.9 386.8L295.9 389L284.9 387.7L273.9 387.2L262.9 386L251.8 388.4L240.8 390.4L229.8 390.4L218.8 394L207.8 391.6L196.8 394.3L185.7 392.7L174.7 393L163.7 394L152.7 396.6L141.7 397.6L130.6 397.4L119.6 399L108.6 400.6L97.6 401.1" fill="#34983f" fill-opacity="0.7" class="World_0-area"></path><path stroke-linecap="round" d="M97.6 401.1L108.6 400.6L119.6 399L130.6 397.4L141.7 397.6L152.7 396.6L163.7 394L174.7 393L185.7 392.7L196.8 394.3L207.8 391.6L218.8 394L229.8 390.4L240.8 390.4L251.8 388.4L262.9 386L273.9 387.2L284.9 387.7L295.9 389L306.9 386.8L317.9 384.4L329 386.6L340 388L351 385.4L362 383.9L373 384.2L384 388.2L395.1 387.1L406.1 384.3L417.1 385L428.1 385.3L439.1 384L450.1 386.3L461.2 386.6L472.2 388.3L483.2 385.1L494.2 385.1L505.2 389.6L516.3 391.8L527.3 391.2L538.3 391.2L549.3 393.7L560.3 391.4L571.3 390.1L582.4 387.1L593.4 389.5L604.4 385.6L615.4 382L626.4 384.9L637.4 386.2L648.5 383.6L659.5 383.4L670.5 380.7L681.5 380.3" stroke="rgb(43, 80, 141)" stroke-opacity="0.7" stroke-width="0.5" fill="none" class="World_1-border"></path><path stroke-linecap="round" d="M97.6 401.1L108.6 394.3L119.6 391.8L130.6 384L141.7 384.4L152.7 372.4L163.7 365.4L174.7 359.9L185.7 358.4L196.8 355.1L207.8 338.9L218.8 345.1L229.8 330.2L240.8 334.8L251.8 329.8L262.9 314.1L273.9 315.2L284.9 296.2L295.9 303L306.9 301.1L317.9 288.6L329 279.5L340 289.5L351 265.3L362 260.1L373 258.2L384 267.6L395.1 274.2L406.1 252.5L417.1 240.4L428.1 249.6L439.1 237L450.1 247.4L461.2 239.9L472.2 248.2L483.2 223.2L494.2 218.4L505.2 219.9L516.3 220.6L527.3 224.1L538.3 216.3L549.3 227.9L560.3 219.6L571.3 191L582.4 192.1L593.4 197.8L604.4 179.6L615.4 152.3L626.4 158.2L637.4 162.3L648.5 144.8L659.5 148.8L670.5 117.7L681.5 109.4" stroke="rgb(44, 127, 53)" stroke-opacity="0.7" stroke-width="0.5" fill="none" class="World_0-border"></path></g></g></g><g style="fill: #777;" class="SourcesFooter"><g style="fill: #777;" class="clickable"><text font-size="12.60" x="15.0" y="581.6"><tspan x="15" y="581.58">Source: Land sparing from cereal yields - World Bank (2017)</tspan></text></g><text font-size="12.60" x="454.6" y="581.6"><tspan x="454.606" y="581.58"><a target='_blank' style='fill: #777;' href='https://ourworldindata.org/yields-and-land-use-in-agriculture/'>OurWorldInData.org/yields-and-land-use-in-agriculture/</a> • <a style="fill: #777;" href="http://creativecommons.org/licenses/by-sa/4.0/deed.en_US" target="_blank">CC BY-SA</a></tspan></text></g></g></svg>
